Numix/16/status/indicator-keyboard-Hu-4.svg

<?xml version="1.0" encoding="UTF-8" standalone="no"?>
<svg
   xmlns:dc="http://purl.org/dc/elements/1.1/"
   xmlns:cc="http://creativecommons.org/ns#"
   xmlns:rdf="http://www.w3.org/1999/02/22-rdf-syntax-ns#"
   xmlns:svg="http://www.w3.org/2000/svg"
   xmlns="http://www.w3.org/2000/svg"
   xmlns:sodipodi="http://sodipodi.sourceforge.net/DTD/sodipodi-0.dtd"
   xmlns:inkscape="http://www.inkscape.org/namespaces/inkscape"
   viewBox="0 0 16 16"
   id="svg2"
   version="1.1"
   inkscape:version="0.91 r13725"
   sodipodi:docname="indicator-keyboard-Hu-4.svg">
  <metadata
     id="metadata14">
    <rdf:RDF>
      <cc:Work
         rdf:about="">
        <dc:format>image/svg+xml</dc:format>
        <dc:type
           rdf:resource="http://purl.org/dc/dcmitype/StillImage" />
      </cc:Work>
    </rdf:RDF>
  </metadata>
  <defs
     id="defs12" />
  <sodipodi:namedview
     pagecolor="#ffffff"
     bordercolor="#666666"
     borderopacity="1"
     objecttolerance="10"
     gridtolerance="10"
     guidetolerance="10"
     inkscape:pageopacity="0"
     inkscape:pageshadow="2"
     inkscape:window-width="640"
     inkscape:window-height="480"
     id="namedview10"
     showgrid="false"
     inkscape:zoom="14.75"
     inkscape:cx="8"
     inkscape:cy="8"
     inkscape:window-x="65"
     inkscape:window-y="24"
     inkscape:window-maximized="0"
     inkscape:current-layer="svg2" />
  <path
     style="fill:#ececec;fill-opacity:1"
     d="M 1.5996094 0 C 0.71320937 2.9605947e-16 0 0.71320937 0 1.5996094 L 0 14.400391 C 2.9605947e-16 15.286791 0.71320937 16 1.5996094 16 L 14.400391 16 C 15.286791 16 16 15.286791 16 14.400391 L 16 1.5996094 C 16 0.71320937 15.286791 0 14.400391 0 L 1.5996094 0 z M 1.2324219 4.859375 L 1.84375 4.859375 L 1.84375 7.5683594 L 5.2285156 7.5683594 L 5.2285156 4.859375 L 5.8398438 4.859375 L 5.8398438 11.095703 L 5.2285156 11.095703 L 5.2285156 8.0996094 L 1.84375 8.0996094 L 1.84375 11.095703 L 1.2324219 11.095703 L 1.2324219 4.859375 z M 7.3652344 6.4433594 L 7.9511719 6.4433594 L 7.9511719 8.8632812 C 7.9511719 9.1932813 7.9734844 9.4731719 8.0214844 9.7011719 C 8.0694844 9.9291721 8.1478594 10.115766 8.2558594 10.259766 C 8.3638594 10.397766 8.5019219 10.498453 8.6699219 10.564453 C 8.8439219 10.624453 9.0547813 10.654297 9.3007812 10.654297 C 9.5767812 10.654297 9.8155312 10.639375 10.019531 10.609375 C 10.223531 10.579375 10.354203 10.553297 10.408203 10.529297 L 10.408203 6.4433594 L 10.992188 6.4433594 L 10.992188 10.933594 C 10.818187 10.981594 10.585016 11.035703 10.291016 11.095703 C 9.9970156 11.155703 9.6369375 11.185547 9.2109375 11.185547 C 8.8629375 11.185547 8.5718906 11.135203 8.3378906 11.033203 C 8.1038906 10.931203 7.9135313 10.787563 7.7695312 10.601562 C 7.6255312 10.415563 7.5210781 10.189781 7.4550781 9.9257812 C 7.3950781 9.6617812 7.3652344 9.3707344 7.3652344 9.0527344 L 7.3652344 6.4433594 z M 13.867188 8.8417969 L 14.263672 8.8417969 L 14.263672 11.486328 L 14.767578 11.486328 L 14.767578 11.796875 L 14.263672 11.796875 L 14.263672 12.896484 L 13.890625 12.896484 L 13.890625 11.796875 L 12.052734 11.796875 L 12.052734 11.5625 C 12.122934 11.3753 12.220903 11.163687 12.345703 10.929688 C 12.474403 10.695688 12.619397 10.456637 12.779297 10.210938 C 12.939197 9.9652374 13.111628 9.7261874 13.298828 9.4921875 C 13.486028 9.2542875 13.676088 9.0367969 13.867188 8.8417969 z M 13.890625 9.2695312 C 13.754125 9.4099312 13.615009 9.5706063 13.474609 9.7539062 C 13.334209 9.9372063 13.199012 10.129225 13.070312 10.328125 C 12.945512 10.523125 12.829903 10.719069 12.720703 10.917969 C 12.611503 11.116869 12.519413 11.306928 12.445312 11.486328 L 13.890625 11.486328 L 13.890625 9.2695312 z "
     id="path4" />
</svg>

<svg xmlns="http://www.w3.org/2000/svg" viewBox="0 0 16 16">
 <path d="m 1.6 0 c -0.886 0 -1.6 0.713 -1.6 1.6 l 0 12.801 c 0 0.886 0.713 1.6 1.6 1.6 l 12.801 0 c 0.886 0 1.6 -0.713 1.6 -1.6 l 0 -12.801 c 0 -0.886 -0.713 -1.6 -1.6 -1.6 l -12.801 0 z m -0.367 4.859 l 0.611 0 l 0 2.709 l 3.385 0 l 0 -2.709 l 0.611 0 l 0 6.236 l -0.611 0 l 0 -2.996 l -3.385 0 l 0 2.996 l -0.611 0 l 0 -6.236 z m 6.133 1.584 l 0.586 0 l 0 2.42 c 0 0.33 0.022 0.61 0.07 0.838 c 0.048 0.228 0.126 0.415 0.234 0.559 c 0.108 0.138 0.246 0.239 0.414 0.305 c 0.174 0.06 0.385 0.09 0.631 0.09 c 0.276 0 0.515 -0.015 0.719 -0.045 c 0.204 -0.03 0.335 -0.056 0.389 -0.08 l 0 -4.086 l 0.584 0 l 0 4.49 c -0.174 0.048 -0.407 0.102 -0.701 0.162 c -0.294 0.06 -0.654 0.09 -1.08 0.09 c -0.348 0 -0.639 -0.05 -0.873 -0.152 c -0.234 -0.102 -0.424 -0.246 -0.568 -0.432 c -0.144 -0.186 -0.248 -0.412 -0.314 -0.676 c -0.06 -0.264 -0.09 -0.555 -0.09 -0.873 l 0 -2.609 z m 6.502 2.398 l 0.396 0 l 0 2.645 l 0.504 0 l 0 0.311 l -0.504 0 l 0 1.1 l -0.373 0 l 0 -1.1 l -1.838 0 l 0 -0.234 c 0.07 -0.187 0.168 -0.399 0.293 -0.633 c 0.129 -0.234 0.274 -0.473 0.434 -0.719 c 0.16 -0.246 0.332 -0.485 0.52 -0.719 c 0.187 -0.238 0.377 -0.455 0.568 -0.65 z m 0.023 0.428 c -0.136 0.14 -0.276 0.301 -0.416 0.484 c -0.14 0.183 -0.276 0.375 -0.404 0.574 c -0.125 0.195 -0.24 0.391 -0.35 0.59 c -0.109 0.199 -0.201 0.389 -0.275 0.568 l 1.445 0 l 0 -2.217 z" style="fill:#ececec;fill-opacity:1"/>
</svg>
